optimized/24/outline/checkbox.svg

<svg viewBox="0 0 24 24" fill="none" xmlns="http://www.w3.org/2000/svg">
  <g clip-path="url(#clip0_2117_12126)">
    <path d="M8.03461 11.4741C7.74417 11.1788 7.26931 11.1748 6.97399 11.4653C6.67866 11.7557 6.6747 12.2306 6.96515 12.5259L9.96496 15.5761C10.1052 15.7187 10.2966 15.7994 10.4966 15.8002C10.6966 15.8011 10.8886 15.722 11.03 15.5806L17.0302 9.58063C17.3231 9.28775 17.3231 8.81287 17.0302 8.51997C16.7373 8.22707 16.2625 8.22706 15.9696 8.51995L10.5041 13.9851L8.03461 11.4741Z" fill="#333333"/>
    <path d="M3 6C3 4.34315 4.34315 3 6 3H18C19.6569 3 21 4.34315 21 6V18C21 19.6569 19.6569 21 18 21H6C4.34315 21 3 19.6569 3 18V6ZM6 4.5C5.17157 4.5 4.5 5.17157 4.5 6V18C4.5 18.8284 5.17157 19.5 6 19.5H18C18.8284 19.5 19.5 18.8284 19.5 18V6C19.5 5.17157 18.8284 4.5 18 4.5H6Z" fill="#333333"/>
  </g>
  <defs>
    <clipPath id="clip0_2117_12126">
      <rect width="24" height="24" fill="white"/>
    </clipPath>
  </defs>
</svg>

<svg xmlns="http://www.w3.org/2000/svg" width="24" height="24" fill="none">
  <g fill="#333" clip-path="url(#a)">
    <path d="M8.035 11.474a.75.75 0 1 0-1.07 1.052l3 3.05a.75.75 0 0 0 1.065.005l6-6a.75.75 0 0 0-1.06-1.061l-5.466 5.465-2.47-2.51Z"/>
    <path d="M3 6a3 3 0 0 1 3-3h12a3 3 0 0 1 3 3v12a3 3 0 0 1-3 3H6a3 3 0 0 1-3-3V6Zm3-1.5A1.5 1.5 0 0 0 4.5 6v12A1.5 1.5 0 0 0 6 19.5h12a1.5 1.5 0 0 0 1.5-1.5V6A1.5 1.5 0 0 0 18 4.5H6Z"/>
  </g>
  <defs>
    <clipPath id="a">
      <path fill="#fff" d="M0 0h24v24H0z"/>
    </clipPath>
  </defs>
</svg>
